setcps(0.2)

$: note("e1!3 ‾ ‾ ‾ g1 e1 a1!3 ‾ ‾ b1 ‾ g1").sound("gm_electric_bass_finger")
.delay(0.2).room(1)
$: note("‾ e4").sound("piano").slow(4).delay(0.6).room(4)

$: sound("<Cowbell Cowbell Cowbell - >*32")
$: sound("< -  conga:4 - conga:1 - conga:2 conga:1> * 32").gain(2)
$: sound("<- sh - sh -> *32")
